flaticon/office/analytics-5.svg

<svg xmlns="http://www.w3.org/2000/svg" width="32" height="32" viewBox="0 0 24 24">
    <path d="M14 14.199219C13.761719 14.199219 13.601562 14.359375 13.601562 14.601562L13.601562 15.800781C13.601562 16.039062 13.761719 16.199219 14 16.199219 14.238281 16.199219 14.398438 16.039062 14.398438 15.800781L14.398438 14.601562C14.398438 14.359375 14.238281 14.199219 14 14.199219zM15.601562 12.601562C15.359375 12.601562 15.199219 12.761719 15.199219 13L15.199219 15.800781C15.199219 16.039062 15.359375 16.199219 15.601562 16.199219 15.839844 16.199219 16 16.039062 16 15.800781L16 13C16 12.761719 15.839844 12.601562 15.601562 12.601562zM17.199219 13.398438C16.960938 13.398438 16.800781 13.558594 16.800781 13.800781L16.800781 15.800781C16.800781 16.039062 16.960938 16.199219 17.199219 16.199219 17.441406 16.199219 17.601562 16.039062 17.601562 15.800781L17.601562 13.800781C17.601562 13.558594 17.441406 13.398438 17.199219 13.398438zM18.800781 10.601562C18.558594 10.601562 18.398438 10.761719 18.398438 11L18.398438 15.800781C18.398438 16.039062 18.558594 16.199219 18.800781 16.199219 19.039062 16.199219 19.199219 16.039062 19.199219 15.800781L19.199219 11C19.199219 10.761719 19.039062 10.601562 18.800781 10.601562zM20.398438 12.199219C20.160156 12.199219 20 12.359375 20 12.601562L20 15.800781C20 16.039062 20.160156 16.199219 20.398438 16.199219 20.640625 16.199219 20.800781 16.039062 20.800781 15.800781L20.800781 12.601562C20.800781 12.359375 20.640625 12.199219 20.398438 12.199219zM7.800781 5.800781C5.28125 5.800781 3.199219 7.878906 3.199219 10.398438 3.199219 12.921875 5.28125 15 7.800781 15 10.320312 15 12.398438 12.921875 12.398438 10.398438 12.398438 7.878906 10.320312 5.800781 7.800781 5.800781zM7.800781 14.199219C5.71875 14.199219 4 12.480469 4 10.398438 4 8.320312 5.71875 6.601562 7.800781 6.601562 9.878906 6.601562 11.601562 8.320312 11.601562 10.398438 11.601562 12.480469 9.878906 14.199219 7.800781 14.199219zM7.800781 14.199219"/>
    <path d="M 11.078125 7.160156 C 10.160156 6.238281 8.878906 5.761719 7.601562 5.800781 C 7.480469 5.800781 7.398438 5.839844 7.320312 5.921875 C 7.238281 6 7.199219 6.078125 7.199219 6.199219 L 7.199219 10.601562 C 7.199219 10.800781 7.359375 11 7.601562 11 L 12 11 C 12.078125 11 12.199219 10.960938 12.320312 10.921875 C 12.398438 10.839844 12.441406 10.761719 12.441406 10.640625 C 12.480469 9.320312 12 8.078125 11.078125 7.160156 Z M 8 10.199219 L 8 6.601562 C 8.960938 6.640625 9.800781 7.039062 10.480469 7.71875 C 11.160156 8.398438 11.558594 9.238281 11.601562 10.199219 Z M 8 10.199219"/>
    <path d="M10.839844 13.28125L7.878906 10.320312C7.71875 10.160156 7.480469 10.160156 7.320312 10.320312 7.160156 10.480469 7.160156 10.71875 7.320312 10.878906L10.28125 13.839844C10.359375 13.921875 10.441406 13.960938 10.558594 13.960938 10.679688 13.960938 10.761719 13.921875 10.839844 13.839844 11 13.679688 11 13.441406 10.839844 13.28125zM18.398438 7.398438L15.199219 7.398438C14.960938 7.398438 14.800781 7.558594 14.800781 7.800781 14.800781 8.039062 14.960938 8.199219 15.199219 8.199219L18.398438 8.199219C18.640625 8.199219 18.800781 8.039062 18.800781 7.800781 18.800781 7.558594 18.640625 7.398438 18.398438 7.398438zM20.71875 7.519531C20.679688 7.519531 20.679688 7.480469 20.640625 7.480469 20.601562 7.480469 20.601562 7.441406 20.558594 7.441406 20.519531 7.398438 20.519531 7.398438 20.480469 7.398438 20.359375 7.398438 20.199219 7.441406 20.121094 7.519531 20.039062 7.601562 20 7.679688 20 7.800781 20 7.878906 20.039062 7.921875 20.039062 7.960938 20.039062 8 20.078125 8.039062 20.121094 8.078125 20.199219 8.160156 20.28125 8.199219 20.398438 8.199219 20.441406 8.199219 20.441406 8.199219 20.441406 8.199219 20.480469 8.160156 20.480469 8.160156 20.519531 8.160156 20.558594 8.160156 20.601562 8.121094 20.601562 8.121094 20.640625 8.121094 20.679688 8.078125 20.679688 8.078125 20.761719 8 20.800781 7.921875 20.800781 7.800781 20.800781 7.679688 20.761719 7.601562 20.71875 7.519531zM20.398438 5.398438L19.199219 5.398438C18.960938 5.398438 18.800781 5.558594 18.800781 5.800781 18.800781 6.039062 18.960938 6.199219 19.199219 6.199219L20.398438 6.199219C20.640625 6.199219 20.800781 6.039062 20.800781 5.800781 20.800781 5.558594 20.640625 5.398438 20.398438 5.398438zM16 5.398438L15.199219 5.398438C14.960938 5.398438 14.800781 5.558594 14.800781 5.800781 14.800781 6.039062 14.960938 6.199219 15.199219 6.199219L16 6.199219C16.238281 6.199219 16.398438 6.039062 16.398438 5.800781 16.398438 5.558594 16.238281 5.398438 16 5.398438zM17.878906 5.519531C17.839844 5.480469 17.800781 5.480469 17.761719 5.441406 17.601562 5.359375 17.441406 5.398438 17.320312 5.519531 17.238281 5.601562 17.199219 5.679688 17.199219 5.800781 17.199219 5.921875 17.238281 6 17.320312 6.078125 17.398438 6.160156 17.480469 6.199219 17.601562 6.199219 17.71875 6.199219 17.800781 6.160156 17.878906 6.078125 17.960938 6 18 5.921875 18 5.800781 18 5.679688 17.960938 5.601562 17.878906 5.519531zM23.601562 17.398438L15.199219 17.398438C14.960938 17.398438 14.800781 17.558594 14.800781 17.800781L14.800781 18.199219 9.199219 18.199219 9.199219 17.800781C9.199219 17.558594 9.039062 17.398438 8.800781 17.398438L.398438 17.398438C.160156 17.398438 0 17.558594 0 17.800781L0 19C0 19.679688.519531 20.199219 1.199219 20.199219L22.800781 20.199219C23.480469 20.199219 24 19.679688 24 19L24 17.800781C24 17.558594 23.839844 17.398438 23.601562 17.398438zM23.199219 19C23.199219 19.238281 23.039062 19.398438 22.800781 19.398438L1.199219 19.398438C.960938 19.398438.800781 19.238281.800781 19L.800781 18.199219 8.398438 18.199219 8.398438 18.601562C8.398438 18.839844 8.558594 19 8.800781 19L15.199219 19C15.441406 19 15.601562 18.839844 15.601562 18.601562L15.601562 18.199219 23.199219 18.199219zM23.199219 19"/>
    <path d="M 21.199219 3.800781 L 2.800781 3.800781 C 2.121094 3.800781 1.601562 4.320312 1.601562 5 L 1.601562 17.800781 C 1.601562 18.039062 1.761719 18.199219 2 18.199219 L 8.398438 18.199219 L 8.398438 18.601562 C 8.398438 18.839844 8.558594 19 8.800781 19 L 15.199219 19 C 15.441406 19 15.601562 18.839844 15.601562 18.601562 L 15.601562 18.199219 L 22 18.199219 C 22.238281 18.199219 22.398438 18.039062 22.398438 17.800781 L 22.398438 5 C 22.398438 4.320312 21.878906 3.800781 21.199219 3.800781 Z M 21.601562 17.398438 L 15.199219 17.398438 C 14.960938 17.398438 14.800781 17.558594 14.800781 17.800781 L 14.800781 18.199219 L 9.199219 18.199219 L 9.199219 17.800781 C 9.199219 17.558594 9.039062 17.398438 8.800781 17.398438 L 2.398438 17.398438 L 2.398438 5 C 2.398438 4.761719 2.558594 4.601562 2.800781 4.601562 L 21.199219 4.601562 C 21.441406 4.601562 21.601562 4.761719 21.601562 5 Z M 21.601562 17.398438"/>
</svg>

<svg xmlns="http://www.w3.org/2000/svg" width="32" height="32" viewBox="0 0 24 24">
    <path d="M14 14.2c-.238 0-.398.16-.398.402V15.8c0 .238.16.398.398.398.238 0 .398-.16.398-.398v-1.2c0-.242-.16-.402-.398-.402zm0 0M15.602 12.602c-.243 0-.403.16-.403.398v2.8c0 .24.16.4.403.4.238 0 .398-.16.398-.4V13c0-.238-.16-.398-.398-.398zm0 0M17.2 13.398c-.24 0-.4.16-.4.403v2c0 .238.16.398.4.398.241 0 .402-.16.402-.398v-2c0-.242-.16-.403-.403-.403zm0 0M18.8 10.602c-.241 0-.402.16-.402.398v4.8c0 .24.16.4.403.4.238 0 .398-.16.398-.4V11c0-.238-.16-.398-.398-.398zm0 0M20.398 12.2c-.238 0-.398.16-.398.402V15.8c0 .238.16.398.398.398.243 0 .403-.16.403-.398v-3.2c0-.242-.16-.402-.403-.402zm0 0M7.8 5.8c-2.519 0-4.6 2.079-4.6 4.598C3.2 12.922 5.28 15 7.8 15c2.52 0 4.598-2.078 4.598-4.602 0-2.52-2.078-4.597-4.597-4.597zm0 8.4C5.72 14.2 4 12.48 4 10.397 4 8.32 5.719 6.602 7.8 6.602c2.079 0 3.802 1.718 3.802 3.796 0 2.082-1.723 3.801-3.801 3.801zm0 0"/>
    <path d="M11.078 7.16c-.918-.922-2.2-1.398-3.476-1.36a.356.356 0 0 0-.282.122.348.348 0 0 0-.12.277v4.403c0 .199.16.398.402.398H12c.078 0 .2-.04.32-.078a.375.375 0 0 0 .121-.281c.04-1.32-.441-2.563-1.363-3.48zM8 10.2V6.601c.96.039 1.8.437 2.48 1.117.68.68 1.079 1.52 1.122 2.48zm0 0"/>
    <path d="M10.84 13.281l-2.961-2.96a.385.385 0 0 0-.559 0 .385.385 0 0 0 0 .558l2.961 2.96c.078.083.16.122.278.122.12 0 .203-.04.28-.121a.385.385 0 0 0 0-.559zm0 0M18.398 7.398H15.2c-.238 0-.398.16-.398.403 0 .238.16.398.398.398h3.2c.242 0 .402-.16.402-.398 0-.242-.16-.403-.403-.403zm0 0M20.719 7.52c-.04 0-.04-.04-.078-.04-.04 0-.04-.039-.082-.039-.04-.043-.04-.043-.079-.043-.12 0-.28.043-.359.122A.361.361 0 0 0 20 7.8c0 .079.04.122.04.16 0 .04.038.08.081.118.078.082.16.121.277.121h.043c.04-.039.04-.039.079-.039s.082-.039.082-.039c.039 0 .078-.043.078-.043a.348.348 0 0 0 .12-.277c0-.121-.038-.2-.081-.281zm0 0M20.398 5.398H19.2c-.238 0-.398.16-.398.403 0 .238.16.398.398.398h1.2c.242 0 .402-.16.402-.398 0-.242-.16-.403-.403-.403zm0 0M16 5.398h-.8c-.24 0-.4.16-.4.403 0 .238.16.398.4.398h.8c.238 0 .398-.16.398-.398 0-.242-.16-.403-.398-.403zm0 0M17.879 5.52c-.04-.04-.078-.04-.117-.079-.16-.082-.32-.043-.442.079a.361.361 0 0 0-.12.28c0 .122.038.2.12.278.078.082.16.121.282.121.117 0 .199-.039.277-.12A.348.348 0 0 0 18 5.8c0-.121-.04-.2-.121-.281zm0 0M23.602 17.398h-8.403c-.238 0-.398.16-.398.403v.398H9.199v-.398c0-.242-.16-.403-.398-.403H.398c-.238 0-.398.16-.398.403V19c0 .68.52 1.2 1.2 1.2h21.6c.68 0 1.2-.52 1.2-1.2v-1.2c0-.241-.16-.402-.398-.402zM23.199 19c0 .238-.16.398-.398.398H1.199c-.238 0-.398-.16-.398-.398v-.8h7.597v.402c0 .238.16.398.403.398h6.398c.242 0 .403-.16.403-.398v-.403h7.597zm0 0"/>
    <path d="M21.2 3.8H2.8c-.679 0-1.198.52-1.198 1.2v12.8c0 .24.16.4.398.4h6.398v.402c0 .238.16.398.403.398h6.398c.242 0 .403-.16.403-.398v-.403H22c.238 0 .398-.16.398-.398V5c0-.68-.52-1.2-1.199-1.2zm.402 13.598h-6.403c-.238 0-.398.16-.398.403v.398H9.199v-.398c0-.242-.16-.403-.398-.403H2.398V5c0-.238.16-.398.403-.398h18.398c.242 0 .403.16.403.398zm0 0"/>
</svg>
